X: 854
T: Coming From the Wedding   #2
R: hornpipe
%S: s:2 b:12(6+6)
B: Francis O'Neill: "The Dance Music of Ireland" (1907) #854
Z: Frank Nordberg - http://www.musicaviva.com
F: http://www.musicaviva.com/abc/tunes/ireland/oneill-1001/0854/oneill-1001-0854-1.abc
N: Compacted via repeats and two types of multiple endings [JC]
M: C|
L: 1/8
K: A
(3EFG "^A"|: A2 (ce) agfe | dcBA GBE [1,3 c | B2 GB EBGB | AABc dcdB :|[2,4 B | Aceg agaf | edcB A2 :|
"^B"|: (cd) |: e2 (ce) Aece |[1 f2 (df) Bfdf :|[2 dcBA GABc :|[3 dcde fgaf | eagf edcB | AdcB A2 :|
